resources/material/places/folder-user-round.svg

<svg xmlns="http://www.w3.org/2000/svg" width="16" height="16" viewBox="0 0 16 16">
	<path fill="context-fill" fill-opacity="context-fill-opacity"
		d="M14.40002,3.20001H8L6.87201,2.07202C6.56799,1.76801,6.15997,1.59998,5.73602,1.59998H1.59998
	c-0.88,0-1.59198,0.72003-1.59198,1.60004L0,12.79999c0,0.88,0.71997,1.60004,1.59998,1.60004h12.80005
	c0.88,0,1.59998-0.72003,1.59998-1.60004v-8C16,3.91998,15.28003,3.20001,14.40002,3.20001z M10.40002,5.59998
	c0.88,0,1.59998,0.72003,1.59998,1.60004s-0.71997,1.59998-1.59998,1.59998S8.79999,8.08002,8.79999,7.20001
	S9.52002,5.59998,10.40002,5.59998z M12.83466,12H7.96533c-0.46246,0-0.77942-0.45654-0.64105-0.89783
	c0.47101-1.5022,2.16559-1.5022,3.07574-1.5022c0.9101,0,2.60468,0,3.07568,1.5022C13.61407,11.54346,13.29712,12,12.83466,12z" />
</svg>

<svg width="16" height="16">
  <path fill="#f4f4f7" fill-opacity="context-fill-opacity" d="M14.4 3.2H8L6.872 2.072A1.605 1.605 0 0 0 5.736 1.6H1.6C.72 1.6.008 2.32.008 3.2L0 12.8c0 .88.72 1.6 1.6 1.6h12.8c.88 0 1.6-.72 1.6-1.6v-8c0-.88-.72-1.6-1.6-1.6zm-4 2.4c.88 0 1.6.72 1.6 1.6s-.72 1.6-1.6 1.6-1.6-.72-1.6-1.6.72-1.6 1.6-1.6zm2.435 6.4h-4.87c-.462 0-.78-.457-.64-.898C7.794 9.6 9.49 9.6 10.4 9.6c.91 0 2.605 0 3.076 1.502.138.441-.179.898-.641.898z"/>
</svg>
